robot-vacuum-variant-alert.svg

<svg fill="currentColor" viewBox="0 0 24 24"><path d="M3 3c-1.1 0-2 .9-2 2v2h2V5h14v2h2V5c0-1.1-.9-2-2-2zm3 4v2h8V7zM1 9v3c0 5 4 9 9 9s9-4 9-9V9h-2v3c0 3.9-3.1 7-7 7s-7-3.1-7-7V9zm9 3c-1.4 0-2.5 1.1-2.5 2.5S8.6 17 10 17s2.5-1.1 2.5-2.5S11.4 12 10 12m11 0V7h2v6h-2m0 4v-2h2v2z"/></svg>

<svg  viewBox="0 0 24 24" fill="currentColor"><path  d="M3 3C1.9 3 1 3.9 1 5V7H3V5H17V7H19V5C19 3.9 18.1 3 17 3H3M6 7V9H14V7H6M1 9V12C1 17 5 21 10 21S19 17 19 12V9H17V12C17 15.9 13.9 19 10 19S3 15.9 3 12V9H1M10 12C8.6 12 7.5 13.1 7.5 14.5S8.6 17 10 17 12.5 15.9 12.5 14.5 11.4 12 10 12M21 12V7H23V13H21M21 17V15H23V17H21Z"/></svg>
